raws/icons/content/googleplay-logo.svg

<svg width="180" height="53" viewBox="0 0 180 53" fill="none" xmlns="http://www.w3.org/2000/svg">
<path d="M173.333 52.5H6.66667C3.00167 52.5 0 49.5452 0 45.9375V6.5625C0 2.95477 3.00167 0 6.66667 0H173.333C176.998 0 180 2.95477 180 6.5625V45.9375C180 49.5452 176.998 52.5 173.333 52.5Z" fill="black"/>
<path d="M173.333 1.05164C176.42 1.05164 178.932 3.52406 178.932 6.5625V45.9375C178.932 48.9759 176.42 51.4484 173.333 51.4484H6.66667C3.58 51.4484 1.06833 48.9759 1.06833 45.9375V6.5625C1.06833 3.52406 3.58 1.05164 6.66667 1.05164H173.333ZM173.333 0H6.66667C3.00167 0 0 2.95477 0 6.5625V45.9375C0 49.5452 3.00167 52.5 6.66667 52.5H173.333C176.998 52.5 180 49.5452 180 45.9375V6.5625C180 2.95477 176.998 0 173.333 0Z" fill="#A6A6A6"/>
<path d="M63.2234 13.4454C63.2234 14.5413 62.8901 15.419 62.2334 16.0736C61.4784 16.8496 60.4951 17.2401 59.2901 17.2401C58.1384 17.2401 57.155 16.8431 56.3484 16.0605C55.54 15.2664 55.1367 14.2919 55.1367 13.1254C55.1367 11.9589 55.54 10.9844 56.3484 10.1969C57.155 9.40777 58.1384 9.01074 59.2901 9.01074C59.8634 9.01074 60.41 9.12723 60.9317 9.34379C61.4517 9.56199 61.875 9.8573 62.1817 10.2215L61.485 10.9139C60.95 10.2921 60.2217 9.98527 59.2901 9.98527C58.4501 9.98527 57.7217 10.274 57.1034 10.8564C56.4917 11.4405 56.185 12.1968 56.185 13.1254C56.185 14.054 56.4917 14.8169 57.1034 15.401C57.7217 15.9768 58.4501 16.2721 59.2901 16.2721C60.1817 16.2721 60.9317 15.9768 61.5234 15.3944C61.9134 15.0089 62.1351 14.4773 62.1934 13.7981H59.2901V12.8498H63.1634C63.21 13.0549 63.2234 13.2534 63.2234 13.4454Z" fill="white" stroke="white" stroke-width="0.16" stroke-miterlimit="10"/>
<path d="M69.3685 10.1568H65.7302V12.6505H69.0102V13.5988H65.7302V16.0925H69.3685V17.0589H64.7002V9.19043H69.3685V10.1568Z" fill="white" stroke="white" stroke-width="0.16" stroke-miterlimit="10"/>
<path d="M73.705 17.0589H72.675V10.1568H70.4434V9.19043H75.9384V10.1568H73.705V17.0589Z" fill="white" stroke="white" stroke-width="0.16" stroke-miterlimit="10"/>
<path d="M79.915 17.0589V9.19043H80.9434V17.0589H79.915Z" fill="white" stroke="white" stroke-width="0.16" stroke-miterlimit="10"/>
<path d="M85.5014 17.0589H84.4797V10.1568H82.2397V9.19043H87.7414V10.1568H85.5014V17.0589Z" fill="white" stroke="white" stroke-width="0.16" stroke-miterlimit="10"/>
<path d="M98.1451 16.0474C97.3568 16.8431 96.3801 17.2401 95.2151 17.2401C94.0434 17.2401 93.0668 16.8431 92.2784 16.0474C91.4918 15.2533 91.1001 14.2788 91.1001 13.1254C91.1001 11.9721 91.4918 10.9975 92.2784 10.2035C93.0668 9.40777 94.0434 9.01074 95.2151 9.01074C96.3734 9.01074 97.3501 9.40777 98.1384 10.21C98.9318 11.0107 99.3234 11.9786 99.3234 13.1254C99.3234 14.2788 98.9318 15.2533 98.1451 16.0474ZM93.0401 15.3879C93.6334 15.9768 94.3551 16.2721 95.2151 16.2721C96.0684 16.2721 96.7968 15.9768 97.3834 15.3879C97.9751 14.7989 98.2751 14.0425 98.2751 13.1254C98.2751 12.2083 97.9751 11.452 97.3834 10.863C96.7968 10.274 96.0684 9.97871 95.2151 9.97871C94.3551 9.97871 93.6334 10.274 93.0401 10.863C92.4484 11.452 92.1484 12.2083 92.1484 13.1254C92.1484 14.0425 92.4484 14.7989 93.0401 15.3879Z" fill="white" stroke="white" stroke-width="0.16" stroke-miterlimit="10"/>
<path d="M100.769 17.0589V9.19043H102.019L105.905 15.31H105.95L105.905 13.7973V9.19043H106.934V17.0589H105.86L101.79 10.6375H101.745L101.79 12.1567V17.0589H100.769Z" fill="white" stroke="white" stroke-width="0.16" stroke-miterlimit="10"/>
<path d="M90.8469 28.55C87.7152 28.55 85.1569 30.8961 85.1569 34.133C85.1569 37.3438 87.7152 39.7145 90.8469 39.7145C93.9852 39.7145 96.5435 37.3438 96.5435 34.133C96.5435 30.8961 93.9852 28.55 90.8469 28.55ZM90.8469 37.516C89.1285 37.516 87.6502 36.1198 87.6502 34.133C87.6502 32.12 89.1285 30.7484 90.8469 30.7484C92.5652 30.7484 94.0502 32.12 94.0502 34.133C94.0502 36.1198 92.5652 37.516 90.8469 37.516ZM78.4319 28.55C75.2935 28.55 72.7419 30.8961 72.7419 34.133C72.7419 37.3438 75.2935 39.7145 78.4319 39.7145C81.5685 39.7145 84.1219 37.3438 84.1219 34.133C84.1219 30.8961 81.5685 28.55 78.4319 28.55ZM78.4319 37.516C76.7119 37.516 75.2285 36.1198 75.2285 34.133C75.2285 32.12 76.7119 30.7484 78.4319 30.7484C80.1502 30.7484 81.6285 32.12 81.6285 34.133C81.6285 36.1198 80.1502 37.516 78.4319 37.516ZM63.6585 30.2612V32.6335H69.4135C69.2452 33.9591 68.7952 34.9337 68.1052 35.6129C67.2652 36.4332 65.9569 37.3438 63.6585 37.3438C60.1169 37.3438 57.3435 34.5301 57.3435 31.0438C57.3435 27.5574 60.1169 24.7438 63.6585 24.7438C65.5735 24.7438 66.9669 25.4804 67.9952 26.4352L69.6935 24.7634C68.2552 23.4116 66.3419 22.3731 63.6585 22.3731C58.8019 22.3731 54.7202 26.263 54.7202 31.0438C54.7202 35.8245 58.8019 39.7145 63.6585 39.7145C66.2835 39.7145 68.2552 38.8679 69.8052 37.2798C71.3935 35.7163 71.8885 33.5178 71.8885 31.7427C71.8885 31.1914 71.8419 30.6845 71.7585 30.2612H63.6585ZM124.069 32.1003C123.6 30.8518 122.155 28.55 119.212 28.55C116.295 28.55 113.867 30.8124 113.867 34.133C113.867 37.2601 116.27 39.7145 119.492 39.7145C122.097 39.7145 123.6 38.1509 124.219 37.2404L122.285 35.9722C121.64 36.9008 120.762 37.516 119.492 37.516C118.23 37.516 117.325 36.9467 116.745 35.8245L124.33 32.7352L124.069 32.1003ZM116.335 33.9591C116.27 31.8066 118.034 30.7041 119.297 30.7041C120.287 30.7041 121.127 31.1914 121.407 31.8887L116.335 33.9591ZM110.17 39.3748H112.664V22.9686H110.17V39.3748ZM106.087 29.7936H106.004C105.444 29.1406 104.375 28.55 103.022 28.55C100.182 28.55 97.5852 31.0044 97.5852 34.1511C97.5852 37.2798 100.182 39.7145 103.022 39.7145C104.375 39.7145 105.444 39.1189 106.004 38.4463H106.087V39.2469C106.087 41.3813 104.929 42.5281 103.06 42.5281C101.537 42.5281 100.592 41.4453 100.202 40.5348L98.0335 41.4256C98.6585 42.9055 100.314 44.7266 103.06 44.7266C105.984 44.7266 108.45 43.0334 108.45 38.9138V28.8896H106.087V29.7936ZM103.235 37.516C101.517 37.516 100.079 36.1002 100.079 34.1511C100.079 32.184 101.517 30.7484 103.235 30.7484C104.929 30.7484 106.264 32.184 106.264 34.1511C106.264 36.1002 104.929 37.516 103.235 37.516ZM135.742 22.9686H129.779V39.3748H132.265V33.1585H135.742C138.504 33.1585 141.212 31.1914 141.212 28.0627C141.212 24.9357 138.497 22.9686 135.742 22.9686ZM135.807 30.8764H132.265V25.2507H135.807C137.664 25.2507 138.724 26.7683 138.724 28.0627C138.724 29.3326 137.664 30.8764 135.807 30.8764ZM151.179 28.5188C149.382 28.5188 147.513 29.2998 146.745 31.0306L148.952 31.9412C149.427 31.0306 150.3 30.7353 151.224 30.7353C152.514 30.7353 153.822 31.4982 153.842 32.8452V33.0174C153.392 32.7615 152.429 32.3825 151.244 32.3825C148.867 32.3825 146.445 33.6704 146.445 36.0739C146.445 38.2723 148.392 39.6882 150.58 39.6882C152.254 39.6882 153.177 38.945 153.757 38.0804H153.842V39.3486H156.244V33.0552C156.244 30.1463 154.037 28.5188 151.179 28.5188ZM150.879 37.5095C150.065 37.5095 148.932 37.1124 148.932 36.1198C148.932 34.85 150.345 34.3627 151.569 34.3627C152.664 34.3627 153.177 34.6006 153.842 34.914C153.647 36.4332 152.319 37.5095 150.879 37.5095ZM164.993 28.8781L162.135 35.9902H162.05L159.095 28.8781H156.413L160.854 38.817L158.32 44.3476H160.919L167.76 28.8781H164.993ZM142.578 39.3748H145.072V22.9686H142.578V39.3748Z" fill="white"/>
<path d="M13.9133 9.89425C13.5216 10.2978 13.2949 10.9262 13.2949 11.74V40.7659C13.2949 41.5796 13.5216 42.208 13.9133 42.6116L14.0099 42.7002L30.5332 26.4416V26.0577L14.0099 9.7991L13.9133 9.89425Z" fill="url(#paint0_linear_2260_1915)"/>
<path d="M36.0349 31.8643L30.5332 26.442V26.0581L36.0415 20.6358L36.1649 20.7064L42.6882 24.36C44.5499 25.3969 44.5499 27.1032 42.6882 28.1466L36.1649 31.7937L36.0349 31.8643Z" fill="url(#paint1_linear_2260_1915)"/>
<path d="M36.1652 31.7934L30.5336 26.2497L13.9136 42.6117C14.5319 43.2515 15.5402 43.3286 16.6869 42.6888L36.1652 31.7934Z" fill="url(#paint2_linear_2260_1915)"/>
<path d="M36.1652 20.7063L16.6869 9.81094C15.5402 9.17766 14.5319 9.25477 13.9136 9.89461L30.5336 26.25L36.1652 20.7063Z" fill="url(#paint3_linear_2260_1915)"/>
<defs>
<linearGradient id="paint0_linear_2260_1915" x1="29.0662" y1="41.0682" x2="7.04201" y2="18.6944" gradientUnits="userSpaceOnUse">
<stop stop-color="#00A0FF"/>
<stop offset="0.0066" stop-color="#00A1FF"/>
<stop offset="0.2601" stop-color="#00BEFF"/>
<stop offset="0.5122" stop-color="#00D2FF"/>
<stop offset="0.7604" stop-color="#00DFFF"/>
<stop offset="1" stop-color="#00E3FF"/>
</linearGradient>
<linearGradient id="paint1_linear_2260_1915" x1="45.1124" y1="26.2482" x2="12.8499" y2="26.2482" gradientUnits="userSpaceOnUse">
<stop stop-color="#FFE000"/>
<stop offset="0.4087" stop-color="#FFBD00"/>
<stop offset="0.7754" stop-color="#FFA500"/>
<stop offset="1" stop-color="#FF9C00"/>
</linearGradient>
<linearGradient id="paint2_linear_2260_1915" x1="33.1029" y1="23.2361" x2="3.23635" y2="-7.10456" gradientUnits="userSpaceOnUse">
<stop stop-color="#FF3A44"/>
<stop offset="1" stop-color="#C31162"/>
</linearGradient>
<linearGradient id="paint3_linear_2260_1915" x1="9.72997" y1="52.2687" x2="23.0667" y2="38.7204" gradientUnits="userSpaceOnUse">
<stop stop-color="#32A071"/>
<stop offset="0.0685" stop-color="#2DA771"/>
<stop offset="0.4762" stop-color="#15CF74"/>
<stop offset="0.8009" stop-color="#06E775"/>
<stop offset="1" stop-color="#00F076"/>
</linearGradient>
</defs>
</svg>

<svg width="180" height="53" fill="none" xmlns="http://www.w3.org/2000/svg"><path d="M173.333 52.5H6.667C3.002 52.5 0 49.545 0 45.937V6.563C0 2.954 3.002 0 6.667 0h166.666C176.998 0 180 2.955 180 6.563v39.374c0 3.608-3.002 6.563-6.667 6.563z" fill="#000"/><path d="M173.333 1.052c3.087 0 5.599 2.472 5.599 5.51v39.376c0 3.038-2.512 5.51-5.599 5.51H6.667c-3.087 0-5.599-2.472-5.599-5.51V6.562c0-3.038 2.512-5.51 5.599-5.51h166.666zm0-1.052H6.667C3.002 0 0 2.955 0 6.563v39.374C0 49.545 3.002 52.5 6.667 52.5h166.666c3.665 0 6.667-2.955 6.667-6.563V6.563C180 2.954 176.998 0 173.333 0z" fill="#A6A6A6"/><path d="M63.223 13.445c0 1.096-.333 1.974-.99 2.629-.755.776-1.738 1.166-2.943 1.166-1.152 0-2.135-.397-2.942-1.18-.808-.794-1.211-1.768-1.211-2.935 0-1.166.403-2.14 1.211-2.928.807-.79 1.79-1.186 2.942-1.186.573 0 1.12.116 1.642.333.52.218.943.513 1.25.878l-.697.692c-.535-.622-1.263-.929-2.195-.929a3.08 3.08 0 00-2.187.871c-.611.585-.918 1.34-.918 2.27 0 .928.307 1.69.918 2.275.619.576 1.347.871 2.187.871.892 0 1.642-.295 2.233-.878.39-.385.612-.917.67-1.596H59.29v-.948h3.873c.047.205.06.403.06.595zM69.368 10.157H65.73v2.493h3.28v.949h-3.28v2.494h3.638v.966H64.7V9.19h4.668v.967zM73.705 17.059h-1.03v-6.902h-2.232V9.19h5.495v.967h-2.233v6.902zM79.915 17.059V9.19h1.028v7.869h-1.028zM85.501 17.059H84.48v-6.902h-2.24V9.19h5.501v.967h-2.24v6.902zM98.145 16.047c-.788.796-1.765 1.193-2.93 1.193-1.172 0-2.148-.397-2.937-1.193-.786-.794-1.178-1.768-1.178-2.922 0-1.153.392-2.127 1.178-2.921.789-.796 1.765-1.193 2.937-1.193 1.158 0 2.135.397 2.923 1.199.794.8 1.185 1.769 1.185 2.915 0 1.154-.391 2.128-1.178 2.922zm-5.105-.66c.593.59 1.315.885 2.175.885.853 0 1.582-.295 2.168-.884.592-.59.892-1.345.892-2.263 0-.917-.3-1.673-.892-2.262-.586-.589-1.315-.884-2.168-.884-.86 0-1.582.295-2.175.884-.592.589-.892 1.345-.892 2.262 0 .918.3 1.674.892 2.263zM100.769 17.059V9.19h1.25l3.886 6.12h.045l-.045-1.513V9.19h1.029v7.869h-1.074l-4.07-6.422h-.045l.045 1.52v4.902h-1.021z" fill="#fff" stroke="#fff" stroke-width=".16" stroke-miterlimit="10"/><path d="M90.847 28.55c-3.132 0-5.69 2.346-5.69 5.583 0 3.21 2.558 5.581 5.69 5.581 3.138 0 5.697-2.37 5.697-5.581 0-3.237-2.559-5.583-5.697-5.583zm0 8.966c-1.718 0-3.197-1.396-3.197-3.383 0-2.013 1.478-3.385 3.197-3.385 1.718 0 3.203 1.372 3.203 3.385 0 1.987-1.485 3.383-3.203 3.383zM78.432 28.55c-3.139 0-5.69 2.346-5.69 5.583 0 3.21 2.551 5.581 5.69 5.581 3.136 0 5.69-2.37 5.69-5.581 0-3.237-2.553-5.583-5.69-5.583zm0 8.966c-1.72 0-3.204-1.396-3.204-3.383 0-2.013 1.484-3.385 3.204-3.385 1.718 0 3.197 1.372 3.197 3.385 0 1.987-1.479 3.383-3.197 3.383zm-14.774-7.255v2.372h5.755c-.168 1.326-.618 2.3-1.308 2.98-.84.82-2.148 1.73-4.447 1.73a6.269 6.269 0 01-6.315-6.3c0-3.486 2.774-6.3 6.315-6.3 1.915 0 3.309.737 4.337 1.692l1.698-1.672c-1.438-1.351-3.351-2.39-6.035-2.39-4.856 0-8.938 3.89-8.938 8.67 0 4.782 4.082 8.672 8.938 8.672 2.626 0 4.597-.847 6.147-2.435 1.588-1.564 2.083-3.762 2.083-5.537a7.81 7.81 0 00-.13-1.482h-8.1zm60.411 1.84c-.469-1.25-1.914-3.551-4.857-3.551-2.917 0-5.345 2.262-5.345 5.583 0 3.127 2.403 5.581 5.625 5.581 2.605 0 4.108-1.563 4.727-2.474l-1.934-1.268c-.645.929-1.523 1.544-2.793 1.544-1.262 0-2.167-.57-2.747-1.691l7.585-3.09-.261-.635zm-7.734 1.858c-.065-2.152 1.699-3.255 2.962-3.255.99 0 1.83.487 2.11 1.185l-5.072 2.07zm-6.165 5.416h2.494V22.969h-2.494v16.406zm-4.083-9.581h-.083c-.56-.653-1.629-1.244-2.982-1.244-2.84 0-5.437 2.454-5.437 5.601 0 3.129 2.597 5.563 5.437 5.563 1.353 0 2.422-.595 2.982-1.268h.083v.8c0 2.135-1.158 3.282-3.027 3.282-1.523 0-2.468-1.083-2.858-1.993l-2.168.89c.624 1.48 2.28 3.302 5.026 3.302 2.924 0 5.39-1.694 5.39-5.813V28.89h-2.363v.904zm-2.852 7.722c-1.718 0-3.156-1.416-3.156-3.365 0-1.967 1.438-3.403 3.156-3.403 1.694 0 3.029 1.436 3.029 3.403 0 1.95-1.335 3.365-3.029 3.365zm32.507-14.547h-5.963v16.406h2.486v-6.217h3.477c2.762 0 5.47-1.967 5.47-5.095 0-3.127-2.715-5.094-5.47-5.094zm.065 7.907h-3.542v-5.625h3.542a2.869 2.869 0 012.917 2.812c0 1.27-1.06 2.813-2.917 2.813zm15.372-2.357c-1.797 0-3.666.78-4.434 2.512l2.207.91c.475-.91 1.348-1.206 2.272-1.206 1.29 0 2.598.763 2.618 2.11v.172c-.45-.256-1.413-.635-2.598-.635-2.377 0-4.799 1.288-4.799 3.692 0 2.198 1.947 3.614 4.135 3.614 1.674 0 2.597-.743 3.177-1.608h.085v1.269h2.402v-6.294c0-2.909-2.207-4.536-5.065-4.536zm-.3 8.99c-.814 0-1.947-.397-1.947-1.39 0-1.269 1.413-1.756 2.637-1.756 1.095 0 1.608.238 2.273.551-.195 1.52-1.523 2.596-2.963 2.596zm14.114-8.63l-2.858 7.111h-.085l-2.955-7.112h-2.682l4.441 9.939-2.534 5.53h2.599l6.841-15.469h-2.767zm-22.415 10.496h2.494V22.969h-2.494v16.406z" fill="#fff"/><path d="M13.913 9.894c-.391.404-.618 1.032-.618 1.846v29.026c0 .814.227 1.442.618 1.846l.097.088 16.523-16.258v-.384L14.01 9.799l-.097.095z" fill="url(#paint0_linear_2260_1915)"/><path d="M36.035 31.864l-5.502-5.422v-.384l5.508-5.422.124.07 6.523 3.654c1.862 1.037 1.862 2.743 0 3.787l-6.523 3.647-.13.07z" fill="url(#paint1_linear_2260_1915)"/><path d="M36.165 31.793l-5.631-5.543-16.62 16.362c.618.64 1.626.717 2.773.077l19.478-10.896z" fill="url(#paint2_linear_2260_1915)"/><path d="M36.165 20.706L16.687 9.811c-1.147-.633-2.155-.556-2.773.084l16.62 16.355 5.631-5.544z" fill="url(#paint3_linear_2260_1915)"/><defs><linearGradient id="paint0_linear_2260_1915" x1="29.066" y1="41.068" x2="7.042" y2="18.694" gradientUnits="userSpaceOnUse"><stop stop-color="#00A0FF"/><stop offset=".007" stop-color="#00A1FF"/><stop offset=".26" stop-color="#00BEFF"/><stop offset=".512" stop-color="#00D2FF"/><stop offset=".76" stop-color="#00DFFF"/><stop offset="1" stop-color="#00E3FF"/></linearGradient><linearGradient id="paint1_linear_2260_1915" x1="45.112" y1="26.248" x2="12.85" y2="26.248" gradientUnits="userSpaceOnUse"><stop stop-color="#FFE000"/><stop offset=".409" stop-color="#FFBD00"/><stop offset=".775" stop-color="orange"/><stop offset="1" stop-color="#FF9C00"/></linearGradient><linearGradient id="paint2_linear_2260_1915" x1="33.103" y1="23.236" x2="3.236" y2="-7.105" gradientUnits="userSpaceOnUse"><stop stop-color="#FF3A44"/><stop offset="1" stop-color="#C31162"/></linearGradient><linearGradient id="paint3_linear_2260_1915" x1="9.73" y1="52.269" x2="23.067" y2="38.72" gradientUnits="userSpaceOnUse"><stop stop-color="#32A071"/><stop offset=".069" stop-color="#2DA771"/><stop offset=".476" stop-color="#15CF74"/><stop offset=".801" stop-color="#06E775"/><stop offset="1" stop-color="#00F076"/></linearGradient></defs></svg>
